X:21
T:Henry MacDermott Roe (1st Air)
M:6/8
L:1/8
C:Carolan
S:Complete Works of O'Carolan
R:Dbl-Jig
Z:Ed Wosika
K:G
D|GG/2A/2B/2A/2 GED|G/1F/2G/2A/2B/2c/2 dBG|
c/2e/2d/2c/2B/2A/2 B/2d/2c/2B/2A/2G/2|AA/4B/4c/2B/2A/2  BGE||
|GG/2A/2B/2A/2 GED|G/1F/2G/2A/2B/2c/2 dBG|c/2e/2d/2c/2B/2A/2 B/2d/2g/2B/2A/2c/2|BGG G2||
d/2e/2f/2 | gg/2a/2g/2f/2 edB | ee/2f/2g/2a/2 bge | gg/2a/2g/2f/2 edB |
ee/2g/2f/2a/2 g2 (3def)| gg/2a/2g/2f/2 edB | e/2d/2e/2f/2g/2f/2 e/2d/2c/2
B/2A/2G/2 | c/2e/2d/2c/2B/2A/2 B/2d/2g/2B/2A/2c/2| BGG G2|]
